src/images/icons/icon-about-1.svg

<svg width="55" height="50" viewBox="0 0 55 50" fill="none" xmlns="http://www.w3.org/2000/svg">
<path d="M55 12.1001H0V49.9001H55V12.1001Z" fill="#B3B3B3"/>
<path fill-rule="evenodd" clip-rule="evenodd" d="M9.9001 23.9999C9.9001 22.0999 10.7001 20.3999 11.8001 19.2999C13.5001 17.5999 15.7001 17.3999 17.4001 17.3999C19.3001 17.3999 21.0001 17.6999 22.7001 19.2999C24.1001 20.6999 24.6001 22.3999 24.6001 24.2999C24.6001 25.3999 24.3001 26.4999 23.8001 27.3999C23.0001 28.4999 22.1001 29.0999 21.6001 29.5999C22.7001 30.1999 23.5001 30.9999 23.8001 31.4999C24.6001 32.5999 24.9001 33.9999 24.9001 35.3999C24.9001 37.8999 24.1001 39.7999 22.7001 40.9999C21.0001 42.6999 18.8001 42.8999 16.9001 42.8999C15.0001 42.8999 12.7001 42.5999 11.3001 40.9999C10.2001 39.8999 9.4001 37.8999 9.1001 35.9999H12.7001C13.0001 37.0999 13.5001 37.8999 14.1001 38.4999C14.7001 39.0999 15.5001 39.8999 17.2001 39.8999C18.3001 39.8999 19.4001 39.2999 20.0001 38.7999C20.8001 37.9999 21.4001 36.8999 21.4001 35.1999C21.4001 34.3999 21.1001 33.2999 20.3001 32.3999C19.0001 31.2999 17.6001 30.9999 16.8001 30.9999H16.0001V27.8999H16.6001C18.3001 27.8999 19.4001 27.2999 19.7001 26.7999C20.5001 26.1999 20.8001 25.0999 20.8001 24.2999C20.8001 22.8999 20.2001 22.0999 19.7001 21.4999C18.9001 20.6999 18.0001 20.6999 17.2001 20.6999C16.4001 20.6999 15.3001 20.9999 14.4001 21.7999C13.6001 22.5999 13.3001 23.9999 13.3001 23.9999H9.9001Z" fill="white"/>
<path fill-rule="evenodd" clip-rule="evenodd" d="M31.0002 23.9999C31.0002 22.0999 31.8002 20.3999 32.9002 19.2999C34.6002 17.5999 36.8002 17.3999 38.5002 17.3999C40.4002 17.3999 42.1002 17.6999 43.8002 19.2999C45.2002 20.6999 45.7002 22.3999 45.7002 24.2999C45.7002 25.3999 45.4002 26.4999 44.9002 27.3999C44.1002 28.4999 43.2002 29.0999 42.7002 29.5999C43.8002 30.1999 44.6002 30.9999 44.9002 31.4999C45.7002 32.5999 46.0002 33.9999 46.0002 35.3999C46.0002 37.8999 45.2002 39.7999 43.8002 40.9999C42.1002 42.6999 39.9002 42.8999 38.0002 42.8999C36.1002 42.8999 33.8002 42.5999 32.4002 40.9999C31.3002 39.8999 30.5002 37.8999 30.2002 35.9999H33.8002C34.1002 37.0999 34.6002 37.8999 35.2002 38.4999C35.8002 39.0999 36.6002 39.8999 38.3002 39.8999C39.4002 39.8999 40.5002 39.2999 41.1002 38.7999C41.9002 37.9999 42.5002 36.8999 42.5002 35.1999C42.5002 34.3999 42.2002 33.2999 41.4002 32.3999C40.3002 31.2999 38.9002 30.9999 38.1002 30.9999H37.3002V27.8999H37.9002C39.6002 27.8999 40.7002 27.2999 41.0002 26.7999C41.8002 26.1999 42.1002 25.0999 42.1002 24.2999C42.1002 22.8999 41.5002 22.0999 41.0002 21.4999C40.2002 20.6999 39.3002 20.6999 38.5002 20.6999C37.7002 20.6999 36.6002 20.9999 35.7002 21.7999C34.9002 22.5999 34.6002 23.9999 34.6002 23.9999H31.0002Z" fill="white"/>
<path fill-rule="evenodd" clip-rule="evenodd" d="M8.89995 9.3001H8.09995C7.79995 9.3001 7.19995 9.0001 7.19995 8.8001V0.700098C7.19995 0.400098 7.79995 0.100098 7.99995 0.100098H8.79995C9.09995 0.100098 9.39995 0.400098 9.39995 0.700098V8.8001C9.39995 9.0001 9.19995 9.3001 8.89995 9.3001Z" fill="white"/>
<path fill-rule="evenodd" clip-rule="evenodd" d="M48.9 5.69995V9.59995C48.9 9.89995 48.6 10.2 48.3 10.2H45.2C44.6 10.2 44.4 9.89995 44.4 9.59995V5.69995H10.6V9.59995C10.6 9.89995 10.3 10.2 10 10.2H6.9C6.6 10.2 6.3 9.89995 6.3 9.59995V5.69995H3.3C1.4 5.69995 0 7.39995 0 8.99995V12.1H55V8.99995C55 7.29995 53.6 5.69995 51.9 5.69995H48.9Z" fill="white"/>
<path fill-rule="evenodd" clip-rule="evenodd" d="M47.2001 9.3001H46.4001C45.8001 9.3001 45.6001 9.0001 45.6001 8.7001V0.700098C45.6001 0.400098 45.9001 0.100098 46.4001 0.100098H47.2001C47.5001 0.100098 47.8001 0.400098 47.8001 0.700098V8.8001C47.8001 9.0001 47.5001 9.3001 47.2001 9.3001Z" fill="white"/>
</svg>

<svg xmlns="http://www.w3.org/2000/svg" width="55" height="50" fill="none" viewBox="0 0 55 50">
	<path fill="#B3B3B3" d="M55 12.1H0v37.8h55V12.1z"/>
	<path fill="#fff" fill-rule="evenodd" d="M9.9 24c0-1.9.8-3.6 1.9-4.7 1.7-1.7 3.9-1.9 5.6-1.9 1.9 0 3.6.3 5.3 1.9 1.4 1.4 1.9 3.1 1.9 5 0 1.1-.3 2.2-.8 3.1-.8 1.1-1.7 1.7-2.2 2.2 1.1.6 1.9 1.4 2.2 1.9.8 1.1 1.1 2.5 1.1 3.9 0 2.5-.8 4.4-2.2 5.6-1.7 1.7-3.9 1.9-5.8 1.9s-4.2-.3-5.6-1.9c-1.1-1.1-1.9-3.1-2.2-5h3.6c.3 1.1.8 1.9 1.4 2.5.6.6 1.4 1.4 3.1 1.4 1.1 0 2.2-.6 2.8-1.1.8-.8 1.4-1.9 1.4-3.6 0-.8-.3-1.9-1.1-2.8-1.3-1.1-2.7-1.4-3.5-1.4H16v-3.1h.6c1.7 0 2.8-.6 3.1-1.1.8-.6 1.1-1.7 1.1-2.5 0-1.4-.6-2.2-1.1-2.8-.8-.8-1.7-.8-2.5-.8s-1.9.3-2.8 1.1c-.8.8-1.1 2.2-1.1 2.2H9.9zM31 24c0-1.9.8-3.6 1.9-4.7 1.7-1.7 3.9-1.9 5.6-1.9 1.9 0 3.6.3 5.3 1.9 1.4 1.4 1.9 3.1 1.9 5 0 1.1-.3 2.2-.8 3.1-.8 1.1-1.7 1.7-2.2 2.2 1.1.6 1.9 1.4 2.2 1.9.8 1.1 1.1 2.5 1.1 3.9 0 2.5-.8 4.4-2.2 5.6-1.7 1.7-3.9 1.9-5.8 1.9s-4.2-.3-5.6-1.9c-1.1-1.1-1.9-3.1-2.2-5h3.6c.3 1.1.8 1.9 1.4 2.5.6.6 1.4 1.4 3.1 1.4 1.1 0 2.2-.6 2.8-1.1.8-.8 1.4-1.9 1.4-3.6 0-.8-.3-1.9-1.1-2.8-1.1-1.1-2.5-1.4-3.3-1.4h-.8v-3.1h.6c1.7 0 2.8-.6 3.1-1.1.8-.6 1.1-1.7 1.1-2.5 0-1.4-.6-2.2-1.1-2.8-.8-.8-1.7-.8-2.5-.8s-1.9.3-2.8 1.1c-.8.8-1.1 2.2-1.1 2.2H31zM8.9 9.3h-.8c-.3 0-.9-.3-.9-.5V.7c0-.3.6-.6.8-.6h.8c.3 0 .6.3.6.6v8.1c0 .2-.2.5-.5.5z" clip-rule="evenodd"/>
	<path fill="#fff" fill-rule="evenodd" d="M48.9 5.7v3.9c0 .3-.3.6-.6.6h-3.1c-.6 0-.8-.3-.8-.6V5.7H10.6v3.9c0 .3-.3.6-.6.6H6.9c-.3 0-.6-.3-.6-.6V5.7h-3C1.4 5.7 0 7.4 0 9v3.1h55V9c0-1.7-1.4-3.3-3.1-3.3h-3z" clip-rule="evenodd"/>
	<path fill="#fff" fill-rule="evenodd" d="M47.2 9.3h-.8c-.6 0-.8-.3-.8-.6v-8c0-.3.3-.6.8-.6h.8c.3 0 .6.3.6.6v8.1c0 .2-.3.5-.6.5z" clip-rule="evenodd"/>
</svg>
